X:11
T:Duke's Birthday. Ru1.091,The
%%VWML:RutherfordVol1-2248-p46-0p46
Z:Transcription by Village Music Project, Steve Mansfield July 2015
F:http://www.village-music-project.org.uk/
F:http://www.vwml.org/record/RutherfordVol1/2248/p46
L:1/8
Q:1/4=100
K:D
(3DEF (3GAB|"triplet sign added"(3cde f>d|(3DEF (3GAB|(3gfed2:|
|:(3cBA (3cBA|(3def (3def|(3cBA (3cBA|(3gfed2:|
W:The first Couple turns the 2d. woman .| the same
W:with the 2d. man :| Gallop down the middle up again
W:and Cast off :||: Hands across half round with the 2d
W:Couple .|| the same back again :|| the first & 2d.
W:Couple follows each other half round .||. Right
W:hand & Left into the 2d. Couple's place :|
|:
T:Ambigno. Ru1.092
B:Rutherford's Country Dances Vol 1, 1756
Z:village music project, Ruairidh Greig July 2015
M:6/8
L:1/4
Q:1/4=100
K:Amix
a g/fe/|d/e/f/ d/e/f/|gf/ed/|c/d/e/ c/d/e/:|
|:de/fe/|d/B/B/ d/B/B/|cd/ed/|c/A/A/ c/A/A/:|
W:Cast off one Couple .| Cast up again :| Cross
W:over and half figure :||: Hands across half round
W:with the 2d. Couple .|| The same back again :||
W:Right hand & Left quite round with the 2d.
W:Couple :|
|:
